assets/images/youtube_app.svg

<svg viewBox="0 0 24 24" preserveAspectRatio="xMidYMid meet" focusable="false" class="style-scope yt-icon" style="pointer-events: none; display: block; width: 100%; height: 100%;">
<g class="style-scope yt-icon">
<path d="M4 8h4V4H4v4zm6 12h4v-4h-4v4zm-6 0h4v-4H4v4zm0-6h4v-4H4v4zm6 0h4v-4h-4v4zm6-10v4h4V4h-4zm-6 4h4V4h-4v4zm6 6h4v-4h-4v4zm0 6h4v-4h-4v4z" class="style-scope yt-icon"></path></g>
</svg>

<svg id="Layer_1" data-name="Layer 1" xmlns="http://www.w3.org/2000/svg" viewBox="0 0 24 24"><title>youtube_app</title><path d="M4,8H8V4H4Zm6,12h4V16H10ZM4,20H8V16H4Zm0-6H8V10H4Zm6,0h4V10H10ZM16,4V8h4V4ZM10,8h4V4H10Zm6,6h4V10H16Zm0,6h4V16H16Z"/></svg>
